X: 31523
T: Paddy's Leather Breeches
R: jig
M: 6/8
K: Edorian
|:EEE B2A|BEE B2A|EEE B2A|FDD BAF|
EEE B2A|BEE B2A|Bcd ABd|FDD BAF:|
|:d3 B2A|BEE B2A|d3 B2A|FDD BAF|
d3 B2A|BEE B2 A|Bcd ABd|FDD BAF:|
|:~E3 ~F3|~E3 BAF|~E3 EFG|FDD BAF|
~E3 ~F3|~E3 B2A|Bcd ABd|FDD BAF:|
|:dcd B2A|BEE B2A|dcd B2A|FDD BAF|
dcd B2A|BEE B2 A|Bcd ABd|FDD BAF:|

